svg/openproject.svg

<svg xmlns="http://www.w3.org/2000/svg" viewBox="0 0 500 500"><defs><linearGradient id="a" x2="500" y1="500" gradientUnits="userSpaceOnUse"><stop offset="0" stop-color="#0670b8"/><stop offset=".5" stop-color="#0671b9"/><stop offset="1" stop-color="#1a8ccc"/></linearGradient></defs><path d="M0 0h500v500H0z" style="fill:url(#a)"/><path d="M260.65 331.68a3 3 0 0 0 0 .39c0 9.49 8 17.1 17.76 17.1s17.75-7.56 17.75-17.06a2.39 2.39 0 0 0 0-.43v-42.62h-35.51Z" style="fill:#fff"/><path d="M343.51 102h-23.67a58.89 58.89 0 0 0-59.19 58.83v71.37H156.49a58.89 58.89 0 0 0-59.19 58.88v47.35c0 32.68 26.5 59.53 59.19 59.53h23.67c32.69 0 59.19-26.85 59.19-59.53v-47.35c0-.79 0-2-.06-2h-35.45v49.37c0 13.05-10.62 24-23.68 24h-23.67c-13.06 0-23.68-11-23.68-24v-47.37a23.4 23.4 0 0 1 23.68-23.32h187c32.69 0 59.19-26.85 59.19-59.54v-47.35A58.89 58.89 0 0 0 343.51 102Zm23.68 106.18c0 13.06-10.62 24-23.68 24h-47.35v-71.31a23.4 23.4 0 0 1 23.68-23.32h23.67a23.4 23.4 0 0 1 23.68 23.32Z" style="fill:#fff"/></svg>

<svg xmlns="http://www.w3.org/2000/svg" xmlns:xlink="http://www.w3.org/1999/xlink" viewBox="0 0 500 500"><defs><linearGradient id="a" y1="500" x2="500" gradientUnits="userSpaceOnUse"><stop offset="0" stop-color="#0670b8"/><stop offset="0.5" stop-color="#0671b9"/><stop offset="1" stop-color="#1a8ccc"/></linearGradient></defs><rect width="500" height="500" style="fill:url(#a)"/><path d="M260.65,331.68h0a3,3,0,0,0,0,.39c0,9.49,8,17.1,17.76,17.1s17.75-7.56,17.75-17.06a2.39,2.39,0,0,0,0-.43h0V289.06H260.65Z" style="fill:#fff"/><path d="M343.51,102H319.84a58.89,58.89,0,0,0-59.19,58.83v71.37H156.49A58.89,58.89,0,0,0,97.3,291.08v47.35c0,32.68,26.5,59.53,59.19,59.53h23.67c32.69,0,59.19-26.85,59.19-59.53V291.08c0-.79,0-2-.06-2H203.84v49.37c0,13.05-10.62,24-23.68,24H156.49c-13.06,0-23.68-11-23.68-24V291.08a23.4,23.4,0,0,1,23.68-23.32h187c32.69,0,59.19-26.85,59.19-59.54V160.87A58.89,58.89,0,0,0,343.51,102Zm23.68,106.18c0,13.06-10.62,24-23.68,24H296.16V160.87a23.4,23.4,0,0,1,23.68-23.32h23.67a23.4,23.4,0,0,1,23.68,23.32Z" style="fill:#fff"/></svg>
